src/assets/sponsors/wolfram.svg

<svg id="a4b6aa60-c167-4180-b839-fe53f5b89b67" data-name="Layer 1" xmlns="http://www.w3.org/2000/svg" viewBox="0 0 532.6 419.8"><title>wolfram</title><polygon points="0 347.2 18.3 347.2 27 394.9 39.7 347.2 55.9 347.2 71 395.8 79.8 347.2 97.3 347.2 82.3 418.6 62.2 418.6 48.8 374.1 35.1 418.6 14 418.6 0 347.2" fill="#231f20"/><polygon points="532.6 418.6 514.3 418.6 505.6 370.7 492.9 418.6 476.7 418.6 461.7 370.1 452.8 418.6 435.3 418.6 450.3 347.2 470.4 347.2 483.8 391.8 497.5 347.2 518.6 347.2 532.6 418.6" fill="#231f20"/><path d="M163.2,361.5c23.2,0,35.3,14,35.3,36.9,0,22.7-12.3,36.9-35.3,36.9s-35.3-14.2-35.3-36.9c0-22.9,12.1-36.9,35.3-36.9m0,59.7c11.4,0,16-11,16-22.8,0-12.4-4.5-22.8-16-22.8s-16,10.4-16,22.8c0,11.8,4.6,22.8,16,22.8" transform="translate(-27.5 -15.5)" fill="#231f20"/><polygon points="181.6 347.2 200.3 347.2 200.3 404.5 229.4 404.5 229.4 418.6 181.6 418.6 181.6 347.2" fill="#231f20"/><polygon points="237.2 347.2 284.4 347.2 284.4 360.7 256 360.7 256 376.4 283.1 376.4 283.1 389.9 256 389.9 256 418.6 237.2 418.6 237.2 347.2" fill="#231f20"/><path d="M321.7,362.7h33.5c12.5,0,22.7,5.7,22.7,18,0,9.5-4.4,15.8-13.5,18v.2c6.1,1.6,6.5,7.1,10,15.7l6.9,19.4H361.7l-4-12.9c-3.8-12.3-6.3-15.3-13.2-15.3h-3.9V434H321.8V362.7Zm18.8,29.7h5c6.1,0,13.7-.2,13.7-8.3,0-6.6-6.6-7.9-13.7-7.9h-5Z" transform="translate(-27.5 -15.5)" fill="#231f20"/><path d="M409.7,362.7h23l27.2,71.4H439.3L434,418.9H407.5l-5.6,15.2H382.8Zm11.5,14.7H421l-9.1,27.9h17.7Z" transform="translate(-27.5 -15.5)" fill="#231f20"/><path d="M551.2,365.2a2.7,2.7,0,1,1,2.7,2.8,2.6,2.6,0,0,1-2.7-2.8m4.8,0a2.21,2.21,0,1,0-2.2,2.4,2.27,2.27,0,0,0,2.2-2.4m-3.2-1.5h1c.6,0,1.1.2,1.1.9a.76.76,0,0,1-.6.8l.7,1.3h-.5l-.6-1.1h-.7v1.1h-.5v-3Zm.9,1.5c.4,0,.7-.2.7-.5s-.2-.6-.7-.6h-.5v1.1Z" transform="translate(-27.5 -15.5)" fill="#808285"/><path d="M404.3,179.9l45.2-50.8-66.4-14.5,6.8-67.7L327.6,74.2,293.3,15.5,259,74.2,196.8,47l6.8,67.7-66.4,14.5L182.4,180l-45.2,50.8,66.4,14.5-6.8,67.6L259,285.6l34.3,58.7,34.3-58.7,62.2,27.3-6.7-67.7,66.4-14.5Zm11.9,32.7L386,202.3l-20.6-26.8,26.5,9.9Zm-97.6,62.8-18.8,32.1V274.2l19.5-28.4Zm-44-165.9L242.5,98.1,224,73l33.7,14.8Zm54.5-21.7L362.7,73,344.1,98l-32,11.4Zm40.8,29.6-16.3,23.1,1-34.8,19-25.7ZM293.3,260.9l-25-36.5,25-33.9,25,33.9ZM246.4,157l-1.2-44.3,41.7,14.8v43.1Zm53.4-29.5,41.7-14.8L340.3,157l-40.5,13.6Zm-83-10.1L213.1,80l19,25.7,1,34.8Zm66.1,65.5-25,33.9-42.5-12.5,26.9-35Zm-15.5,62.9,19.5,28.4v33.3l-18.8-32.1Zm36.4-62.9,40.5-13.6,26.9,35-42.5,12.5ZM425.2,137l-31.4,35.3-37.1-13.8L379,127Zm-108-55-23.9,30.5L269.5,82l23.8-40.8ZM161.5,137l46.3-10.1,22.3,31.6L193,172.3Zm33.3,48.4,26.5-9.8-20.6,26.8-30.2,10.3Zm-21.5,39.9,31.5-10.7,33.6,9.9-28.1,8.9Zm43.2,19.6L254.2,233l1,40.1-43.3,19Zm115,28.2,1-40.1,37.6,11.9,4.7,47.2Zm44.9-39.7-28.1-8.9,33.6-9.9,31.5,10.8Z" transform="translate(-27.5 -15.5)" fill="#d10"/><path d="M388.4,252.1a2.61,2.61,0,0,1,2.6-2.7,2.71,2.71,0,0,1,0,5.4,2.61,2.61,0,0,1-2.6-2.7m4.7,0a2.11,2.11,0,1,0-2.1,2.3,2.23,2.23,0,0,0,2.1-2.3m-3.1-1.5h1c.5,0,1.1.2,1.1.9a.84.84,0,0,1-.6.8l.7,1.2h-.5l-.5-1.1h-.7v1.1H390Zm.9,1.4c.4,0,.7-.2.7-.5s-.2-.5-.7-.5h-.4v1.1h.4Z" transform="translate(-27.5 -15.5)" fill="#808285"/></svg>

<?xml version="1.0" encoding="utf-8"?>
<!-- Generator: Adobe Illustrator 23.1.1, SVG Export Plug-In . SVG Version: 6.00 Build 0)  -->
<svg version="1.1" id="Layer_1" xmlns="http://www.w3.org/2000/svg" xmlns:xlink="http://www.w3.org/1999/xlink" x="0px" y="0px"
	 viewBox="0 0 586.1 461.6" style="enable-background:new 0 0 586.1 461.6;" xml:space="preserve">
<style type="text/css">
	.wlf0{fill:#231F20;}
	.wlf1{fill:#808285;}
	.wlf2{fill:#DD1100;}
</style>
<polygon class="wlf0" points="27.5,362.7 45.8,362.7 54.5,410.4 67.2,362.7 83.4,362.7 98.5,411.3 107.3,362.7 124.8,362.7 
	109.8,434.1 89.7,434.1 76.3,389.6 62.6,434.1 41.5,434.1 "/>
<polygon class="wlf0" points="560.1,434.1 541.8,434.1 533.1,386.2 520.4,434.1 504.2,434.1 489.2,385.6 480.3,434.1 462.8,434.1 
	477.8,362.7 497.9,362.7 511.3,407.3 525,362.7 546.1,362.7 "/>
<g>
	<path class="wlf0" d="M163.2,361.5c23.2,0,35.3,14,35.3,36.9c0,22.7-12.3,36.9-35.3,36.9c-23,0-35.3-14.2-35.3-36.9
		C127.9,375.5,140,361.5,163.2,361.5 M163.2,421.2c11.4,0,16-11,16-22.8c0-12.4-4.5-22.8-16-22.8c-11.4,0-16,10.4-16,22.8
		C147.2,410.2,151.8,421.2,163.2,421.2"/>
	<polygon class="wlf0" points="209.1,362.7 227.8,362.7 227.8,420 256.9,420 256.9,434.1 209.1,434.1 	"/>
	<polygon class="wlf0" points="264.7,362.7 311.9,362.7 311.9,376.2 283.5,376.2 283.5,391.9 310.6,391.9 310.6,405.4 283.5,405.4 
		283.5,434.1 264.7,434.1 	"/>
	<path class="wlf0" d="M321.7,362.7h33.5c12.5,0,22.7,5.7,22.7,18c0,9.5-4.4,15.8-13.5,18v0.2c6.1,1.6,6.5,7.1,10,15.7l6.9,19.4
		h-19.6l-4-12.9c-3.8-12.3-6.3-15.3-13.2-15.3h-3.9v28.2h-18.8V362.7z M340.5,392.4h5c6.1,0,13.7-0.2,13.7-8.3
		c0-6.6-6.6-7.9-13.7-7.9h-5V392.4z"/>
	<path class="wlf0" d="M409.7,362.7h23l27.2,71.4h-20.6l-5.3-15.2h-26.5l-5.6,15.2h-19.1L409.7,362.7z M421.2,377.4H421l-9.1,27.9
		h17.7L421.2,377.4z"/>
	<path class="wlf1" d="M551.2,365.2c0-1.7,1.2-2.8,2.7-2.8c1.5,0,2.7,1.1,2.7,2.8c0,1.7-1.2,2.8-2.7,2.8
		C552.4,368.1,551.2,366.9,551.2,365.2 M556,365.2c0-1.4-1-2.4-2.2-2.4s-2.2,1-2.2,2.4c0,1.4,1,2.4,2.2,2.4S556,366.6,556,365.2
		 M552.8,363.7h1c0.6,0,1.1,0.2,1.1,0.9c0,0.4-0.2,0.7-0.6,0.8l0.7,1.3h-0.5l-0.6-1.1h-0.7v1.1h-0.5V363.7z M553.7,365.2
		c0.4,0,0.7-0.2,0.7-0.5c0-0.3-0.2-0.6-0.7-0.6h-0.5v1.1H553.7z"/>
	<path class="wlf2" d="M404.3,179.9l45.2-50.8l-66.4-14.5l6.8-67.7l-62.3,27.3l-34.3-58.7l-34.3,58.7L196.8,47l6.8,67.7l-66.4,14.5
		l45.2,50.8l-45.2,50.8l66.4,14.5l-6.8,67.6l62.2-27.3l34.3,58.7l34.3-58.7l62.2,27.3l-6.7-67.7l66.4-14.5L404.3,179.9z
		 M416.2,212.6L386,202.3l-20.6-26.8l26.5,9.9L416.2,212.6z M318.6,275.4l-18.8,32.1v-33.3l19.5-28.4L318.6,275.4z M274.6,109.5
		l-32.1-11.4L224,73l33.7,14.8L274.6,109.5z M329.1,87.8L362.7,73l-18.6,25l-32,11.4L329.1,87.8z M369.9,117.4l-16.3,23.1l1-34.8
		L373.6,80L369.9,117.4z M293.3,260.9l-25-36.5l25-33.9l25,33.9L293.3,260.9z M246.4,157l-1.2-44.3l41.7,14.8v43.1L246.4,157z
		 M299.8,127.5l41.7-14.8l-1.2,44.3l-40.5,13.6V127.5z M216.8,117.4L213.1,80l19,25.7l1,34.8L216.8,117.4z M282.9,182.9l-25,33.9
		l-42.5-12.5l26.9-35L282.9,182.9z M267.4,245.8l19.5,28.4v33.3l-18.8-32.1L267.4,245.8z M303.8,182.9l40.5-13.6l26.9,35l-42.5,12.5
		L303.8,182.9z M425.2,137l-31.4,35.3l-37.1-13.8L379,127L425.2,137z M317.2,82l-23.9,30.5L269.5,82l23.8-40.8L317.2,82z M161.5,137
		l46.3-10.1l22.3,31.6l-37.1,13.8L161.5,137z M194.8,185.4l26.5-9.8l-20.6,26.8l-30.2,10.3L194.8,185.4z M173.3,225.3l31.5-10.7
		l33.6,9.9l-28.1,8.9L173.3,225.3z M216.5,244.9l37.7-11.9l1,40.1l-43.3,19L216.5,244.9z M331.5,273.1l1-40.1l37.6,11.9l4.7,47.2
		L331.5,273.1z M376.4,233.4l-28.1-8.9l33.6-9.9l31.5,10.8L376.4,233.4z"/>
	<path class="wlf1" d="M388.4,252.1c0-1.6,1.2-2.7,2.6-2.7c1.4,0,2.5,1.1,2.5,2.7c0,1.6-1.1,2.7-2.5,2.7
		C389.6,254.8,388.4,253.7,388.4,252.1 M393.1,252.1c0-1.3-0.9-2.3-2.1-2.3c-1.2,0-2.1,1-2.1,2.3c0,1.3,0.9,2.3,2.1,2.3
		C392.1,254.4,393.1,253.4,393.1,252.1 M390,250.6h1c0.5,0,1.1,0.2,1.1,0.9c0,0.3-0.2,0.7-0.6,0.8l0.7,1.2h-0.5l-0.5-1.1h-0.7v1.1
		H390V250.6z M390.9,252c0.4,0,0.7-0.2,0.7-0.5c0-0.3-0.2-0.5-0.7-0.5h-0.4v1.1H390.9z"/>
</g>
</svg>
